assets/channel_banner_mobild.svg

<svg height="427" viewBox="0 0 407.45833 112.97708" width="1540" xmlns="http://www.w3.org/2000/svg"><g fill-rule="evenodd" transform="scale(.26458333)"><g fill="#6c6c6c"><path d="m1306.2734 427h116.9746l116.752-161.66602v-161.97851z"/><path d="m1072.3535 427h116.9746l308.3672-427h-116.9726z"/><path d="m838.43359 427h116.97266l308.36915-427h-116.9746z"/><path d="m604.51367 427h116.97656l308.36717-427h-116.97654z"/><path d="m370.59375 427h116.97461l308.36719-427h-116.97461z"/><path d="m136.67383 427h116.97461l308.36914-427h-116.97461z"/><path d="m0 292.3418v134.6582h19.726562l308.369138-427h-116.97461z"/><path d="m94.175781 0h-94.175781v130.40625z"/></g><path d="m1423.2266 427h116.7734v-161.69727z" fill="#999"/><path d="m1189.3066 427h116.9746l233.7188-323.63281v-103.36719h-42.3242z" fill="#999"/><path d="m955.38672 427h116.97458l308.3692-427h-116.9766z" fill="#999"/><path d="m721.4668 427h116.97461l308.36909-427h-116.9746z" fill="#999"/><path d="m487.54688 427h116.9746l308.36914-427h-116.97656z" fill="#999"/><path d="m253.62695 427h116.97461l308.36719-427h-116.97461z" fill="#999"/><path d="m19.707031 427h116.972659l308.36914-427h-116.97461z" fill="#999"/><path d="m211.13086 0h-116.97461l-94.15625 130.37695v161.97657z" fill="#999"/></g></svg>

<?xml version="1.0" encoding="UTF-8" standalone="no"?>
<!-- Created with Inkscape (http://www.inkscape.org/) -->

<svg xmlns:dc="http://purl.org/dc/elements/1.1/" xmlns:cc="http://creativecommons.org/ns#" xmlns:rdf="http://www.w3.org/1999/02/22-rdf-syntax-ns#"
    xmlns="http://www.w3.org/2000/svg" xmlns:sodipodi="http://sodipodi.sourceforge.net/DTD/sodipodi-0.dtd"
    xmlns:inkscape="http://www.inkscape.org/namespaces/inkscape" width="1540" height="427" viewBox="0 0 407.45833 112.97708"
    version="1.1" id="svg8" inkscape:version="0.92.1 r" sodipodi:docname="channel_banner.svg"
    inkscape:export-filename="/home/the-scrabi/channel_banner.png" inkscape:export-xdpi="96"
    inkscape:export-ydpi="96">
  <defs
     id="defs2" />
  <sodipodi:namedview
     id="base"
     pagecolor="#ffffff"
     bordercolor="#666666"
     borderopacity="1.0"
     inkscape:pageopacity="0.0"
     inkscape:pageshadow="2"
     inkscape:zoom="0.5"
     inkscape:cx="803.85939"
     inkscape:cy="182.74745"
     inkscape:document-units="mm"
     inkscape:current-layer="layer1"
     showgrid="false"
     units="px"
     inkscape:window-width="1920"
     inkscape:window-height="1012"
     inkscape:window-x="0"
     inkscape:window-y="32"
     inkscape:window-maximized="1" />
  <metadata
     id="metadata5">
    <rdf:RDF>
      <cc:Work
         rdf:about="">
        <dc:format>image/svg+xml</dc:format>
        <dc:type
           rdf:resource="http://purl.org/dc/dcmitype/StillImage" />
          <dc:title />
      </cc:Work>
    </rdf:RDF>
  </metadata>
  <g
     inkscape:label="Ebene 1"
     inkscape:groupmode="layer"
     id="layer1"
     transform="translate(0,-184.02291)">
    <g
       id="g5158">
      <path
         transform="matrix(0.26458333,0,0,0.26458333,0,184.02291)"
         id="path5071"
         d="M 1306.2734 427 L 1423.248 427 L 1540 265.33398 L 1540 103.35547 L 1306.2734 427 z "
         style="color:#000000;clip-rule:nonzero;display:inline;overflow:visible;visibility:visible;opacity:1;isolation:auto;mix-blend-mode:normal;color-interpolation:sRGB;color-interpolation-filters:linearRGB;solid-color:#000000;solid-opacity:1;fill:#6c6c6c;fill-opacity:1;fill-rule:evenodd;stroke:none;stroke-width:0.40925127;color-rendering:auto;image-rendering:auto;shape-rendering:auto;text-rendering:auto;enable-background:accumulate" />
      <path
         transform="matrix(0.26458333,0,0,0.26458333,0,184.02291)"
         id="path5067"
         d="M 1072.3535 427 L 1189.3281 427 L 1497.6953 0 L 1380.7227 0 L 1072.3535 427 z "
         style="color:#000000;clip-rule:nonzero;display:inline;overflow:visible;visibility:visible;opacity:1;isolation:auto;mix-blend-mode:normal;color-interpolation:sRGB;color-interpolation-filters:linearRGB;solid-color:#000000;solid-opacity:1;fill:#6c6c6c;fill-opacity:1;fill-rule:evenodd;stroke:none;stroke-width:0.40925127;color-rendering:auto;image-rendering:auto;shape-rendering:auto;text-rendering:auto;enable-background:accumulate" />
      <path
         transform="matrix(0.26458333,0,0,0.26458333,0,184.02291)"
         id="path5063"
         d="M 838.43359 427 L 955.40625 427 L 1263.7754 0 L 1146.8008 0 L 838.43359 427 z "
         style="color:#000000;clip-rule:nonzero;display:inline;overflow:visible;visibility:visible;opacity:1;isolation:auto;mix-blend-mode:normal;color-interpolation:sRGB;color-interpolation-filters:linearRGB;solid-color:#000000;solid-opacity:1;fill:#6c6c6c;fill-opacity:1;fill-rule:evenodd;stroke:none;stroke-width:0.40925127;color-rendering:auto;image-rendering:auto;shape-rendering:auto;text-rendering:auto;enable-background:accumulate" />
      <path
         transform="matrix(0.26458333,0,0,0.26458333,0,184.02291)"
         id="path5059"
         d="M 604.51367 427 L 721.49023 427 L 1029.8574 0 L 912.88086 0 L 604.51367 427 z "
         style="color:#000000;clip-rule:nonzero;display:inline;overflow:visible;visibility:visible;opacity:1;isolation:auto;mix-blend-mode:normal;color-interpolation:sRGB;color-interpolation-filters:linearRGB;solid-color:#000000;solid-opacity:1;fill:#6c6c6c;fill-opacity:1;fill-rule:evenodd;stroke:none;stroke-width:0.40925127;color-rendering:auto;image-rendering:auto;shape-rendering:auto;text-rendering:auto;enable-background:accumulate" />
      <path
         transform="matrix(0.26458333,0,0,0.26458333,0,184.02291)"
         id="path5055"
         d="M 370.59375 427 L 487.56836 427 L 795.93555 0 L 678.96094 0 L 370.59375 427 z "
         style="color:#000000;clip-rule:nonzero;display:inline;overflow:visible;visibility:visible;opacity:1;isolation:auto;mix-blend-mode:normal;color-interpolation:sRGB;color-interpolation-filters:linearRGB;solid-color:#000000;solid-opacity:1;fill:#6c6c6c;fill-opacity:1;fill-rule:evenodd;stroke:none;stroke-width:0.40925127;color-rendering:auto;image-rendering:auto;shape-rendering:auto;text-rendering:auto;enable-background:accumulate" />
      <path
         transform="matrix(0.26458333,0,0,0.26458333,0,184.02291)"
         id="path5051"
         d="M 136.67383 427 L 253.64844 427 L 562.01758 0 L 445.04297 0 L 136.67383 427 z "
         style="color:#000000;clip-rule:nonzero;display:inline;overflow:visible;visibility:visible;opacity:1;isolation:auto;mix-blend-mode:normal;color-interpolation:sRGB;color-interpolation-filters:linearRGB;solid-color:#000000;solid-opacity:1;fill:#6c6c6c;fill-opacity:1;fill-rule:evenodd;stroke:none;stroke-width:0.40925127;color-rendering:auto;image-rendering:auto;shape-rendering:auto;text-rendering:auto;enable-background:accumulate" />
      <path
         transform="matrix(0.26458333,0,0,0.26458333,0,184.02291)"
         id="path5047"
         d="M 0 292.3418 L 0 427 L 19.726562 427 L 328.0957 0 L 211.12109 0 L 0 292.3418 z "
         style="color:#000000;clip-rule:nonzero;display:inline;overflow:visible;visibility:visible;opacity:1;isolation:auto;mix-blend-mode:normal;color-interpolation:sRGB;color-interpolation-filters:linearRGB;solid-color:#000000;solid-opacity:1;fill:#6c6c6c;fill-opacity:1;fill-rule:evenodd;stroke:none;stroke-width:0.40925127;color-rendering:auto;image-rendering:auto;shape-rendering:auto;text-rendering:auto;enable-background:accumulate" />
      <path
         transform="matrix(0.26458333,0,0,0.26458333,0,184.02291)"
         id="path5045"
         d="M 94.175781 0 L 0 0 L 0 130.40625 L 94.175781 0 z "
         style="color:#000000;clip-rule:nonzero;display:inline;overflow:visible;visibility:visible;opacity:1;isolation:auto;mix-blend-mode:normal;color-interpolation:sRGB;color-interpolation-filters:linearRGB;solid-color:#000000;solid-opacity:1;fill:#6c6c6c;fill-opacity:1;fill-rule:evenodd;stroke:none;stroke-width:0.40925127;color-rendering:auto;image-rendering:auto;shape-rendering:auto;text-rendering:auto;enable-background:accumulate" />
      <path
         transform="matrix(0.26458333,0,0,0.26458333,0,184.02291)"
         id="path5028"
         d="M 1423.2266 427 L 1540 427 L 1540 265.30273 L 1423.2266 427 z "
         style="color:#000000;clip-rule:nonzero;display:inline;overflow:visible;visibility:visible;opacity:1;isolation:auto;mix-blend-mode:normal;color-interpolation:sRGB;color-interpolation-filters:linearRGB;solid-color:#000000;solid-opacity:1;fill:#999999;fill-opacity:1;fill-rule:evenodd;stroke:none;stroke-width:0.40925127;color-rendering:auto;image-rendering:auto;shape-rendering:auto;text-rendering:auto;enable-background:accumulate" />
      <path
         transform="matrix(0.26458333,0,0,0.26458333,0,184.02291)"
         id="path5024"
         d="M 1189.3066 427 L 1306.2812 427 L 1540 103.36719 L 1540 0 L 1497.6758 0 L 1189.3066 427 z "
         style="color:#000000;clip-rule:nonzero;display:inline;overflow:visible;visibility:visible;opacity:1;isolation:auto;mix-blend-mode:normal;color-interpolation:sRGB;color-interpolation-filters:linearRGB;solid-color:#000000;solid-opacity:1;fill:#999999;fill-opacity:1;fill-rule:evenodd;stroke:none;stroke-width:0.40925127;color-rendering:auto;image-rendering:auto;shape-rendering:auto;text-rendering:auto;enable-background:accumulate" />
      <path
         transform="matrix(0.26458333,0,0,0.26458333,0,184.02291)"
         id="path5020"
         d="M 955.38672 427 L 1072.3613 427 L 1380.7305 0 L 1263.7539 0 L 955.38672 427 z "
         style="color:#000000;clip-rule:nonzero;display:inline;overflow:visible;visibility:visible;opacity:1;isolation:auto;mix-blend-mode:normal;color-interpolation:sRGB;color-interpolation-filters:linearRGB;solid-color:#000000;solid-opacity:1;fill:#999999;fill-opacity:1;fill-rule:evenodd;stroke:none;stroke-width:0.40925127;color-rendering:auto;image-rendering:auto;shape-rendering:auto;text-rendering:auto;enable-background:accumulate" />
      <path
         transform="matrix(0.26458333,0,0,0.26458333,0,184.02291)"
         id="path5016"
         d="M 721.4668 427 L 838.44141 427 L 1146.8105 0 L 1029.8359 0 L 721.4668 427 z "
         style="color:#000000;clip-rule:nonzero;display:inline;overflow:visible;visibility:visible;opacity:1;isolation:auto;mix-blend-mode:normal;color-interpolation:sRGB;color-interpolation-filters:linearRGB;solid-color:#000000;solid-opacity:1;fill:#999999;fill-opacity:1;fill-rule:evenodd;stroke:none;stroke-width:0.40925127;color-rendering:auto;image-rendering:auto;shape-rendering:auto;text-rendering:auto;enable-background:accumulate" />
      <path
         transform="matrix(0.26458333,0,0,0.26458333,0,184.02291)"
         id="path5012"
         d="M 487.54688 427 L 604.52148 427 L 912.89062 0 L 795.91406 0 L 487.54688 427 z "
         style="color:#000000;clip-rule:nonzero;display:inline;overflow:visible;visibility:visible;opacity:1;isolation:auto;mix-blend-mode:normal;color-interpolation:sRGB;color-interpolation-filters:linearRGB;solid-color:#000000;solid-opacity:1;fill:#999999;fill-opacity:1;fill-rule:evenodd;stroke:none;stroke-width:0.40925127;color-rendering:auto;image-rendering:auto;shape-rendering:auto;text-rendering:auto;enable-background:accumulate" />
      <path
         transform="matrix(0.26458333,0,0,0.26458333,0,184.02291)"
         id="path5008"
         d="M 253.62695 427 L 370.60156 427 L 678.96875 0 L 561.99414 0 L 253.62695 427 z "
         style="color:#000000;clip-rule:nonzero;display:inline;overflow:visible;visibility:visible;opacity:1;isolation:auto;mix-blend-mode:normal;color-interpolation:sRGB;color-interpolation-filters:linearRGB;solid-color:#000000;solid-opacity:1;fill:#999999;fill-opacity:1;fill-rule:evenodd;stroke:none;stroke-width:0.40925127;color-rendering:auto;image-rendering:auto;shape-rendering:auto;text-rendering:auto;enable-background:accumulate" />
      <path
         transform="matrix(0.26458333,0,0,0.26458333,0,184.02291)"
         id="path5004"
         d="M 19.707031 427 L 136.67969 427 L 445.04883 0 L 328.07422 0 L 19.707031 427 z "
         style="color:#000000;clip-rule:nonzero;display:inline;overflow:visible;visibility:visible;opacity:1;isolation:auto;mix-blend-mode:normal;color-interpolation:sRGB;color-interpolation-filters:linearRGB;solid-color:#000000;solid-opacity:1;fill:#999999;fill-opacity:1;fill-rule:evenodd;stroke:none;stroke-width:0.40925127;color-rendering:auto;image-rendering:auto;shape-rendering:auto;text-rendering:auto;enable-background:accumulate" />
      <path
         transform="matrix(0.26458333,0,0,0.26458333,0,184.02291)"
         id="path5000"
         d="M 211.13086 0 L 94.15625 0 L 0 130.37695 L 0 292.35352 L 211.13086 0 z "
         style="color:#000000;clip-rule:nonzero;display:inline;overflow:visible;visibility:visible;opacity:1;isolation:auto;mix-blend-mode:normal;color-interpolation:sRGB;color-interpolation-filters:linearRGB;solid-color:#000000;solid-opacity:1;fill:#999999;fill-opacity:1;fill-rule:evenodd;stroke:none;stroke-width:0.40925127;color-rendering:auto;image-rendering:auto;shape-rendering:auto;text-rendering:auto;enable-background:accumulate" />
    </g>
  </g>
</svg>
